src/assets/duotone/MicrophoneSlash1.svg

<svg width="24" height="24" viewBox="0 0 24 24"  xmlns="http://www.w3.org/2000/svg">
<path opacity="0.4" d="M17.6199 5.72L7.00988 16.33C6.27988 15.34 5.87988 14.13 5.87988 12.82V8.11C5.87988 6.27 6.69988 4.62 7.99988 3.5V7.64C7.99988 8.03 8.31988 8.35 8.69988 8.35C9.08988 8.35 9.40988 8.03 9.40988 7.64V2.57C9.86988 2.34 10.3599 2.18 10.8699 2.09V5.75C10.8699 6.15 11.1899 6.46 11.5799 6.46C11.9699 6.46 12.2899 6.15 12.2899 5.75V2C14.6799 2.11 16.7399 3.61 17.6199 5.72Z" />
<path d="M18.1202 8.87988V12.8199C18.1202 16.1899 15.3702 18.9399 12.0002 18.9399C11.8202 18.9399 11.6402 18.9299 11.4602 18.9099C11.3802 18.9099 11.3002 18.8999 11.2302 18.8899C11.1002 18.8699 10.9702 18.8499 10.8502 18.8299C10.8002 18.8299 10.7602 18.8099 10.7002 18.7999C10.5602 18.7699 10.4202 18.7299 10.2902 18.6899C10.0702 18.6299 9.86016 18.5499 9.66016 18.4699C9.53016 18.4199 9.41016 18.3699 9.29016 18.2999C9.26016 18.2899 9.24016 18.2699 9.21016 18.2599C9.11016 18.2099 9.01016 18.1599 8.91016 18.0899L18.1202 8.87988Z" />
<path d="M21.7502 11V13C21.7502 18.38 17.3802 22.75 12.0002 22.75C9.88018 22.75 7.85018 22.07 6.18018 20.82L7.26018 19.74C8.64018 20.72 10.2802 21.25 12.0002 21.25C16.5502 21.25 20.2502 17.55 20.2502 13V11C20.2502 10.59 20.5902 10.25 21.0002 10.25C21.4102 10.25 21.7502 10.59 21.7502 11Z" />
<path d="M21.7699 2.22988C21.4699 1.92988 20.9799 1.92988 20.6799 2.22988L2.22988 20.6899C1.92988 20.9899 1.92988 21.4799 2.22988 21.7799C2.37988 21.9199 2.56988 21.9999 2.76988 21.9999C2.96988 21.9999 3.15988 21.9199 3.30988 21.7699L21.7699 3.30988C22.0799 3.00988 22.0799 2.52988 21.7699 2.22988Z" />
</svg>

<?xml version="1.0" encoding="UTF-8"?>
<svg width="24" height="24" viewBox="0 0 24 24" xmlns="http://www.w3.org/2000/svg">
 <path d="m17.62 5.72-10.61 10.61c-0.73-0.99-1.13-2.2-1.13-3.51v-4.71c0-1.84 0.82-3.49 2.12-4.61v4.14c0 0.39 0.32 0.71 0.7 0.71 0.39 0 0.71-0.32 0.71-0.71v-5.07c0.46-0.23 0.95002-0.39 1.46-0.48v3.66c0 0.4 0.32 0.71 0.71 0.71s0.71-0.31 0.71-0.71v-3.75c2.39 0.11 4.45 1.61 5.33 3.72z" opacity=".4"/>
 <path d="m18.12 8.8799v3.94c0 3.37-2.75 6.12-6.12 6.12-0.18 0-0.36-0.01-0.54-0.03-0.08 0-0.16-0.01-0.23-0.02-0.13-0.02-0.26-0.04-0.38-0.06-0.05 0-0.09-0.02-0.15-0.03-0.14-0.03-0.28-0.07-0.41-0.11-0.22-0.06-0.43004-0.14-0.63004-0.22-0.13-0.05-0.25-0.1-0.37-0.17-0.03-0.01-0.05-0.03-0.08-0.04-0.1-0.05-0.2-0.1-0.3-0.17l9.21-9.21z"/>
 <path d="m21.75 11v2c0 5.38-4.37 9.75-9.75 9.75-2.12 0-4.15-0.68-5.82-1.93l1.08-1.08c1.38 0.98 3.02 1.51 4.74 1.51 4.55 0 8.25-3.7 8.25-8.25v-2c0-0.41 0.34-0.75 0.75-0.75s0.75 0.34 0.75 0.75z"/>
 <path d="m21.77 2.2299c-0.3-0.3-0.79-0.3-1.09 0l-18.45 18.46c-0.3 0.3-0.3 0.79 0 1.09 0.15 0.14 0.34 0.22 0.54 0.22s0.39-0.08 0.54-0.23l18.46-18.46c0.31-0.3 0.31-0.78 0-1.08z"/>
</svg>
